X:18471
T:Waltz. CJF.124
M:3/8
L:1/16
Q:60
S: C.J.Fox MS, 1829/33, Beverley,E.Yorks.
R:Waltz
O:England
A:East Yorkshire
B:Kidson Coll.Mitchell Lib.M1805
Z:P J Headford 2000
K:D
A|A>f d2A2|A>f d2f2|a^g=gfeg|baf2A2|A<f d2A2|\
A<f d2f2|a2^a2 (b/=a/g/e/)|d4:||:!a2|g2e2e2|
f2d2d2|e2b2c2|dfagba|g2e2e2|fad'2f'2|e'd'agec|\
d4:||:!d2|c<e A2G2|F<A d2f2|gfebag|fa d2d2|
c<e A2G2|F<a d2f2|(gfeBd)A|d4:||:!a<^ga|d'2z2a>^ga/|\
f2z2d<cd/|cebagf|f2f>ag>a|!
d'c'd'f'e'd'|b^abd'c'b|^gaba=ge|d4:||


